!!!!SEGMENT: pl-wtm--r-249-m_moniuszko-stanislaw--entuzjasta.krn
!!!cenid: 18xx:1655
!!!COM: Moniuszko, Stanisław
!!!COM-rismid: pe30008351
!!!CDT: 1819/05/05-1872/06/04
!!!CNT: Polish
!!!OTL: Entuzjasta
!!!PDT:
!!!AGN: Secular
!!!SMS-siglum: PL-Wtm
!!!SMS-shelfmark: R 249/M
!!!SMS-shelfwork: W
!!!SMS-variant:
!!!SMS-altvar:
!!!NIFC-rismid: 1001063785
!!!URL-scan: http://repozytorium.nifc.pl/skany/pl-wtm-nut--r229m
!!!ONB-nifc:
!!!key:
**kern	**kern	**dynam	**kern	**text	**dynam
*part2	*part2	*part2	*part1	*part1	*part1
*staff3	*staff2	*	*staff1	*staff1	*
*Iempty	*Iempty	*	*Iempty	*	*
*I"	*I"	*	*I"	*	*
*clefF4	*clefG2	*	*clefG2	*	*
*k[b-e-a-]	*k[b-e-a-]	*	*k[b-e-a-]	*	*
*E-:	*E-:	*	*E-:	*	*
*M6/8	*M6/8	*	*M6/8	*	*
*>[A,B,B1,B,B1,B,B1,B,B2,C]	*>[A,B,B1,B,B1,B,B1,B,B2,C]	*	*>[A,B,B1,B,B1,B,B1,B,B2,C]	*	*
=1	=1	=1	=1	=1	=1
*>A	*>A	*	*>A	*	*
*	*^	*	*	*	*
!	!	!	!	!LO:TX:a:t=Presto.	!	!
!	!	!	!	!LO:TX:a:i:t=31. Entuzjasta. e;) J.J. Prusinowskiego.	!	!
4r	4.r	4r	.	2.r	.	.
8r	.	8rg	f	.	.	.
[4.e- 4.d-X\	(8b-/L	(4.g\	.	.	.	.
.	8cc/	.	<	.	.	.
.	8dd-X/J	.	.	.	.	.
=2!|:	=2!|:	=2!|:	=2!|:	=2!|:	=2!|:	=2!|:
*>B	*>B	*>B	*	*>B	*	*
4e-] 4c\	4ff/	4a-\)	[	2.r	.	.
.	.	.	>	.	.	.
8r	8ee-/)	8rg	]	.	.	.
(4.c (4.B-\	(8g/L	(4.en\	<	.	.	.
.	8a-/	.	.	.	.	.
.	8b-/J	.	[	.	.	.
=3	=3	=3	=3	=3	=3	=3
4c 4A-\))	4dd-X/	4f\)	>	4r	.	.
8r	8cc/)	8re	]	8r	.	.
(4.A- (4.BB-/	(4.f/	(4.d\	sf >	8f/	Mo-	<
.	.	.	.	8g/	-żem	.
.	.	.	]	8a-/	ja	[
=4	=4	=4	=4	=4	=4	=4
8G 8E-/))	8b-/)	8e-\)	.	4cc\	dzi-	>
8r	8r	8ryy	.	.	.	.
!	!	!	!LO:DY:t=p.	!	!	!
8r	8r	8ryy	p	8b-\	-wak,	]
(4.E- (4.FF/	(4.c (4.An/	4.ryy	.	8c/	mo-	.
.	.	.	.	8d/	-żem	.
.	.	.	.	8e-/	ja	.
*	*v	*v	*	*	*	*
!!LO:LB:g=original
=5	=5	=5	=5	=5	=5
*^	*	*	*	*	*
!LO:TX:a;t=P:problem:brak zakończenia łuków	!	!	!	!	!	!
8D) 8BB-/)	4.ryy	8f 8B-/))	.	4g/	dzie-	.
8r	.	8r	.	.	.	.
8r	.	8r	.	8f/	-cię,	.
4.F/	(4.AA-\	(>4.d 4.B-/	.	8B-/	mo-	.
.	.	.	.	8c/	-że	.
.	.	.	.	8d/	się	.
=6	=6	=6	=6	=6	=6	=6
4.E-/	4.GG\	4.e- 4.B-/	.	8e-/L	łu-	.
.	.	.	.	8d/J	.	.
.	.	.	.	8e-/	-dzę	.
4.An/	4.FF\	4.e- 4.c/	.	8g/	mo-	.
.	.	.	.	8f/	-je-	.
.	.	.	.	8g/	-mi	.
*v	*v	*	*	*	*	*
=7	=7	=7	=7	=7	=7
*	*^	*	*	*	*
8BB-\)	8e- 8B-/)	4.ryy	.	4f/	sna-	.
8r	8r	.	.	.	.	.
8r	8r	.	.	8f/	-mi,	.
4.A-\	(4f/	4.c\	.	8f/	mo-	.
!	!	!	!	!LO:TX:a:t=cres-cen-:problem:dynamics with extention lines	!	!LO:HP:t=cres-cen-:ext=ct:ext2=ct
.	.	.	<	8g/	-że	<
.	8cc/	.	[	8a-/	nie	.
=8	=8	=8	=8	=8	=8	=8
*	*	*	*	*	*	*^
4.G\	4cc/	4.f 4.d\	>	4cc^\	u-	.	> ]
.	8bn/)	.	]	8bn\	-miem	.	.
8GG/L	((4b/	4.g\	<	8b\	żyć	.	.
8AA-/	.	.	.	8cc\	na	.	.
8BBn/J	8ff 8dd/))	.	[	8dd\	tym	[	.
*	*	*	*	*	*	*v	*v
!!LO:LB:g=original
=9	=9	=9	=9	=9	=9	=9
!	!LO:S:s=2:note:problem:note-level slur	!	!LO:DY:t=f..	!	!	!
4C/	(4ff (>4dd/	4.g\	f >	4ff\	świe-	.
!	!LO:S:s=2:note:problem:note-level slur	!	!	!	!	!
8r	8ee-) 8cc/)	.	.	16ee-\	-cie	.
.	.	.	.	16r	.	.
!	!	!	!LO:DY:t=p.	!LO:TX:a:i:t=un poco piu mosso.	!	!
(<4.AAn/	(4.f#X/	4.e- 4.c\	] p	8ee-\	Lecz	.
.	.	.	.	8dd\	wy	.
.	.	.	.	8cc\	mnie	.
=10	=10	=10	=10	=10	=10	=10
4.BB-/	4.g/	4.e- 4.B-\	.	4b-\	wszys-	.
.	.	.	.	8b-\	-cy	.
4.BBn/	4.f 4.d 4.A-/	4.ryy	.	8a-/	nie	.
.	.	.	.	8g/	ro-	.
.	.	.	.	8f/	-zu-	.
*	*v	*v	*	*	*	*
=11	=11	=11	=11	=11	=11
*^	*	*	*	*	*
4.G/	4C\	4e- 4c/	.	4e-/	-mie-	.
!	!	!	!	!LO:TX:a:i:t=ritard.	!	!
.	8BB-\	8en 8d-X/	.	8en/	-cie,	.
!	!	!	!LO:DY:t=pp.	!	!	!
4.F/	4AAn\	4f 4c/	pp	8f/	a	.
!	!	!LO:TX:b:i:t=ritard-:dur=8e:ext=cd:problem:tekst with extention lines	!	!	!	!
.	.	.	.	8g/	ja	p
.	8AA-X\	8dn 8c-X 8A--/	.	8a-/	z dnia	.
*v	*v	*	*	*	*	*
=12	=12	=12	=12	=12	=12
4GG\	4.e- 4.B- 4.E-</	.	4cc\	na	.
8GG-X\	.	.	8b-\	dzień	.
4FF\	4e- 4c 4An 4.F<;/	.	8f;/	żyć	.
.	.	.	8.g/	mu-	.
8BB-\)	8d 8B- 8A-X/)	.	.	.	.
.	.	.	16f/	-szę	.
!!LO:LB:g=original
=13	=13	=13	=13	=13	=13
!LO:TX:t=1. 2. 3. volta	!	!	!	!	!
*>B1	*>B1	*	*>B1	*	*
*8ba	*	*	*	*	*
*ped	*	*	*	*	*
*^	*^	*	*	*	*
*	*^	*	*	*	*	*	*
!LO:TX:b:t=8	!	!	!	!	!	!	!	!
4.EEE-/	2.EEE-\	4.ryy	8e- 8G/	4.rcccyy	sf	4e-/	z wa-	.
*X8ba	*	*	*	*	*	*	*	*
.	.	.	8r	.	.	.	.	.
.	.	.	8r	.	.	8e-/	-mi.	.
[4.e-/	.	(<4.D-X\	8b-/L	(4.g\	<	4r	.	.
.	.	.	8cc/	.	.	.	.	.
.	.	.	8dd-X/J	.	[[	8r	.	.
*v	*v	*v	*	*	*	*	*	*
*	*v	*v	*	*	*	*
=14:|!	=14:|!	=14:|!	=14:|!	=14:|!	=14:|!
!LO:TX:t=4ta Volta	!	!	!	!	!
*>B2	*>B2	*	*>B2	*	*
*	*^	*	*	*	*
!LO:TX:a:t=P:problem:dwa zbędne takty	!LO:TX:a:t=P:problem:dwa zbędne takty	!	!	!	!	!
4e-] 4c\)	(<4ff/	4a-\)	>	2.r	.	.
8r	8ee-/)	8rd	.	.	.	.
!	!	!	!LO:DY:t=f.	!	!	!
[4.B- 4.BB-\	(<8dd/L	(4.a-\	] f	.	.	.
.	8ff/	.	.	.	.	.
.	8bb-/J	.	.	.	.	.
=15	=15	=15	=15	=15	=15	=15
8B-] 8E-\	8ee-/)	8g\)	.	2.r	.	.
8r	8r	8ryy	.	.	.	.
8r	8r	8ryy	.	.	.	.
4r	4r	4ryy	.	.	.	.
8r	8r	8ryy	.	.	.	.
*	*v	*v	*	*	*	*
!!LO:PB:g=original
=16||	=16||	=16||	=16||	=16||	=16||
*>C	*>C	*	*>C	*	*
!	!	!	!LO:TX:a:t=4ta volta.	!	!
8EE-/	8e- 8G/	.	4e-/	...lę-	.
8r	8r	.	.	.	.
8r	8r	.	16e-/	-knę.	.
.	.	.	16r	.	.
!	!	!	!LO:TX:a:i:t=piu lento.	!	!
(4.GG 4.GGG/	(<4.e- 4.B-^/	.	8.ee-\	Smiej-	.
.	.	.	16e-/	-cie	.
.	.	.	8e-/	się	.
=17	=17	=17	=17	=17	=17
4.AA- 4.AAA-/	4.f 4.e- 4.c^/	.	4e-/	so-	.
.	.	.	8e-/	-bie	.
4.BB- 4.BBB-/	4.g 4.e- 4.d-X^/	.	8e-/	ja	.
.	.	.	8f/	wam	.
.	.	.	8g/	prze-	.
=18	=18	=18	=18	=18	=18
4.C 4.CC/	4.a- 4.e- 4.c^/	.	4b-/	-ba-	.
.	.	.	8a-/	-czę,	.
4.C#X 4.CC#X/	[4.g 4.en [4.B-^/	.	8g/	ja	.
.	.	.	8f#X/	się	.
.	.	.	8g/	da-	.
!!LO:LB:g=original
=19	=19	=19	=19	=19	=19
8D 8DD/)	8g] 8d 8B-/]	.	4dd\	-le-	.
8r	8r	.	.	.	.
8r	8r	.	8dd\	-ko	.
4.D/	4.f#X 4.c 4.An/	.	8cc\	skry-	.
.	.	.	8b-\	-ję	.
.	.	.	8a-\	przed	.
=20	=20	=20	=20	=20	=20
(>[2.GG [2.GGG/	4.g 4.d 4.B-/	.	8g/	wa-	.
.	.	.	8g/	-mi	.
!	!LO:TX:a:t=ri-tar-dan-do.:dur=6e:ext=cd:problem:tekst with extention lines	!	!	!	!
.	.	.	8r	.	.
!	!	!LO:DY:rj	!	!	!
.	(4.ee- 4.cc 4.a- (4.f#X/	sf >	8f#X/	i	.
.	.	.	8g/	nikt	.
.	.	]]	8a-/	nie	.
=21	=21	=21	=21	=21	=21
4.GG] 4.GGG/]	4dd 4b- 4g/))	.	4cc\	uj-	.
.	8r	.	8b-\	-rzy	<
!LO:S:s=1:note:problem:note-level slur	!	!LO:DY:rj:t=sff.	!	!	!
(4.FF 4.FFF/	(>4.aa- 4.dd [>4.b- (<4.a-\	sf >	8b-\	kie-	.
.	.	.	8cc\	-dy	.
.	.	]]	8dd\	za-	[
=22	=22	=22	=22	=22	=22
*8ba	*	*	*	*	*
!LO:TX:b:t=8	!	!	!	!	!
8EEE-/))	8gg 8ee-) 8b-] 8g\)	.	4ff;\	-pla-	>
*X8ba	*	*	*	*	*
!	!LO:TX:a:t=P:problem:fermata nad dwiema pauzami ósemkowymi	!	!	!	!
8r	8r;	.	.	.	.
8r	8r	.	16ee-\	-czę.	]
!	!	!	!LO:TX:a:t=P:problem:wykreślone diminuendo >	!	!
.	.	.	16r	.	.
!	!LO:TX:b:t=P:problem:przekreślone fp.	!LO:DY:t=p.	!	!	!
!	!LO:TX:a:i:t=un poco piu mosso.	!	!	!	!
(<4AA-X/	(>4.f#X 4.e- 4.c/	p	8.ee-\	Z mo-	p
.	.	.	16dd\	-jé-	.
8AAn/	.	.	8cc\	-mi	.
!!LO:LB:g=original
=23	=23	=23	=23	=23	=23
4.BB-/	4.g 4.e- 4.B-/	.	4b-/	łza-	.
.	.	.	8b-/	-mi,	.
4.BBn/	4.f 4.d 4.A-/	.	8a-/	z mo-	.
.	.	.	8g/	-jé-	.
.	.	.	8f/	-mi	.
=24	=24	=24	=24	=24	=24
*^	*	*	*	*	*
4.G/	4C\	4f 4c/	.	4e-/	sna-	.
.	8BB-\	8en 8d-X/	.	8en/	-mi	.
!	!	!LO:TX:b:t=ralentando.:LO:TX:b:t=ra-len-ta-do.:dur=6e:ext=ud:problem:tekst with extention lines	!	!	!	!
4.F/	4AAn\	4f 4c/	.	8.f/	sto-	.
.	.	.	.	16g/	-kroć	.
.	8AA-X\	8dn 8c-X/	.	8a-/	mi	.
=25	=25	=25	=25	=25	=25	=25
4.E-/	4GG\	(>4.e- 4.B-/)	.	4cc\	le-	.
.	8GG-X\	.	.	8b-\	-piej	.
4.F/	4FF\	4e- 4c 4An;/	.	8f;/	ni-	.
.	.	.	.	8.g/	-że-	.
.	8BB-\)	8d 8B- 8A-X/	.	.	.	.
.	.	.	.	16f/	-li	.
*v	*v	*	*	*	*	*
=26	=26	=26	=26	=26	=26
*^	*^	*	*	*	*
*	*8ba	*	*	*	*	*	*
*	*2\right	*	*	*	*	*	*
!	!LO:TX:b:t=8	!	!	!	!	!	!
!	!LO:TX:b:t=P:problem:brak początku łuku	!	!	!	!	!	!
4rFF	(2.EEE-\	8e- 8G/)	8ryy	.	8e-/	z wa-	.
.	.	8r	8r	.	8e-/	-mi.	.
*	*X8ba	*	*	*	*	*	*
8rG	.	8r	8r	.	8r	.	.
[4.e- 4.d-X\	.	8b-/L	4.g\	<	4r	.	.
.	.	(<8cc/	.	.	.	.	.
.	.	8dd-X/J	.	[[	8r	.	.
!!LO:LB:g=original
=27	=27	=27	=27	=27	=27	=27	=27
!	!	!	!	!LO:HP:a	!	!	!
4e-] 4c\	4EE-\)	4ff/	4a-\	>	2.r	.	.
8r	8ryy	8ee-/)	8r	]	.	.	.
!	!	!	!	!LO:DY:rj:t=ff.	!	!	!
(4.BB- (4.BBB-/	4.ryy	8dd/L	4.a-\	ff >	.	.	.
.	.	(8ff/	.	.	.	.	.
.	.	8bb-/J	.	.	.	.	.
*v	*v	*	*	*	*	*	*
=28	=28	=28	=28	=28	=28	=28
4E- 4EE-/))	4ee-/)	4g\	]	2.r	.	.
8r	8r	8ryy	.	.	.	.
4r	4r	4ryy	.	.	.	.
8r	8r	8ryy	.	.	.	.
*	*v	*v	*	*	*	*
==	==	==	==	==	==
*-	*-	*-	*-	*-	*-
!!!system-decoration: {<s1>(s2,s3)}
!!!RDF**kern: > = above
!!!RDF**kern: < = below
!!!RDF**kern: | = vertical stroke
!!!AIN: 2 empty
!!!ENC: Marta Lawrence
!!!END: 2021-04-17
!!!ENC: Berenika Jozajtis
!!!END: 2021-03-30
